X: 21691
T: THE PRIDE OF THE NORTH VALSE 1
C: Composed by Wm. Findlay
%: Bowing and Fingering arranged by W.B. Laybourn
R: waltz
B: K\"ohler's Violin Repository, v.2, 1885 p.169 #1
F: http://www.archive.org/details/klersviolinrepos02rugg
Z: 2012 John Chambers <jc:trillian.mit.edu>
M: 3/4
L: 1/8
K: G
uD2 |\
(G4A2) | (B4c2) | d2.b.g.d.B | (G4B2) |\
(c4e2) | (A4G2) | (F4d2) | (^c2=c2A2) |
(G4A2) | (B4c2) | d2.b.g.d.B | (G4B2) |\
c2.e.d.c.B | A2.c.B.A.G | (F2B3A) | G4 :|
|: ud2 |\
(g4f2) | (g4d2) | (B4d2) | .B.d.B.GD2 |\
(c4e2) | cecAF2 | G2B2c2 | d2b2a2 |
(g4f2) | (g4d2) | (B4d2) | .B.d.B.GD2 |\
(c4e2) | d2f2a2 | (.g3.g)g2 | g2z2 :|

%%sep 2 1 500

